X:3
T:Wragg’s Lesson the 9th.2voices. RH.003
R:country dance
S:Rev.R.Harrison’s MS,c1815,Cumbria
O:England
A:Temple Sowerby,Cumbria
Z:vmp.Simon Wilson. Review PJH, 2008.
M:2/4
L:1/8
Q:1/4=100
K:D
[V:1]|:A|ddfd|a>baf|gefd|ce zA|\
ddfd|a>bag|fdec|d3:|
[V:2]|:A|FAdA|f>gfd|ecdB|Aa zA|\
FAdA|f>gfe|dF/G/AA|F3:|
%
[V:1]|:f|g>age|f>gfd|cdef|ge zf|\
gabe|f>^gad|caB^g|” DC”a3:|
[V:2]|:d|ez ec|dzdB|ABcd|ec zd|\
e>fgc|d>BcB|AceE|” DC”A3:|

